icon-themes/sifr_svg/cmd/sc_equalizeheight.svg

<svg viewBox="0 0 16 16" xmlns="http://www.w3.org/2000/svg"><path d="m9 0v14h7v-14zm-8 2v14h7v-14zm10 0h3v10h-3v-2h2v-2h-2v-2h2v-2h-2zm-8 2h3v10h-3v-2h2v-2h-2v-2h2v-2h-2z" fill="#555753"/></svg>

<svg xmlns="http://www.w3.org/2000/svg" viewBox="0 0 16 16">
  <path
     style="fill:#555753"
     d="M 9 0 L 9 14 L 16 14 L 16 0 L 9 0 z M 1 2 L 1 16 L 8 16 L 8 2 L 1 2 z M 11 2 L 14 2 L 14 12 L 11 12 L 11 10 L 13 10 L 13 8 L 11 8 L 11 6 L 13 6 L 13 4 L 11 4 L 11 2 z M 3 4 L 6 4 L 6 14 L 3 14 L 3 12 L 5 12 L 5 10 L 3 10 L 3 8 L 5 8 L 5 6 L 3 6 L 3 4 z "
     />
</svg>
